packages/kaspersky-hexa-ui-icons/src/iconsSVGs/24/Spiral.svg

<svg width="24" height="24" viewBox="0 0 24 24" fill="none" xmlns="http://www.w3.org/2000/svg">
<path fill-rule="evenodd" clip-rule="evenodd" d="M2.04397 10.7977C2.52925 4.77455 7.95523 2 12.263 2C14.4787 2 16.884 2.79263 18.7509 4.28145C20.6363 5.78504 22 8.02708 22 10.878C21.9999 13.6701 20.9008 15.7009 19.2571 17.0113C17.6468 18.2951 15.591 18.8293 13.7192 18.8293C12.0697 18.8293 10.2725 18.3087 8.86507 17.2337C7.43195 16.1391 6.40919 14.4673 6.40919 12.2683C6.40919 10.1208 7.26675 8.56444 8.46691 7.56183C9.63453 6.5864 11.081 6.17073 12.263 6.17073C15.0733 6.17073 17.6315 8.0644 17.6315 10.878C17.6315 11.8224 17.2687 12.7426 16.6875 13.4335C16.105 14.1257 15.2369 14.6586 14.2046 14.6585C12.2301 14.6585 10.7776 13.4306 10.7776 11.8048C10.7776 11.2526 11.2254 10.8048 11.7777 10.8049C12.3299 10.8049 12.7776 11.2526 12.7776 11.8049C12.7776 12.0328 13.0166 12.6585 14.2046 12.6585C14.5169 12.6585 14.8623 12.4963 15.1571 12.1458C15.4531 11.794 15.6315 11.3239 15.6315 10.878C15.6315 9.47899 14.3066 8.17073 12.263 8.17073C11.5035 8.17073 10.5231 8.45019 9.74915 9.09671C9.00778 9.71605 8.40919 10.7084 8.40919 12.2683C8.40919 13.7766 9.08527 14.8853 10.0791 15.6443C11.0986 16.423 12.4563 16.8293 13.7192 16.8293C15.245 16.8293 16.8296 16.3888 18.0103 15.4475C19.1576 14.5328 19.9999 13.088 20 10.878C20 8.72702 18.9897 7.03003 17.5039 5.8451C15.9995 4.6454 14.0364 4 12.263 4C8.59271 4 4.4101 6.33382 4.03751 10.9584C3.81408 13.7315 4.59673 16.1244 6.10353 17.8712C7.60995 19.6177 9.9006 20.7882 12.8217 21.0027C13.3725 21.0431 13.7862 21.5224 13.7457 22.0732C13.7053 22.624 13.226 23.0378 12.6752 22.9973C9.28624 22.7484 6.48035 21.3701 4.58909 19.1775C2.6982 16.9854 1.78201 14.049 2.04397 10.7977Z" fill="black"/>
</svg>

<svg xmlns="http://www.w3.org/2000/svg" width="24" height="24" fill="none" viewBox="0 0 24 24"><path fill="#000" fill-rule="evenodd" d="M2.044 10.7977C2.5293 4.7745 7.9552 2 12.263 2c2.2157 0 4.621.7926 6.4879 2.2815C20.6363 5.785 22 8.027 22 10.878c-.0001 2.7921-1.0992 4.8229-2.7429 6.1333-1.6103 1.2838-3.6661 1.818-5.5379 1.818-1.6495 0-3.4467-.5206-4.8541-1.5956-1.4332-1.0946-2.456-2.7664-2.456-4.9654 0-2.1475.8577-3.7039 2.0578-4.7065 1.1676-.9754 2.6141-1.391 3.7961-1.391 2.8103 0 5.3685 1.8936 5.3685 4.7072 0 .9444-.3628 1.8646-.944 2.5555-.5825.6922-1.4506 1.2251-2.4829 1.225-1.9745 0-3.427-1.2279-3.427-2.8537 0-.5522.4478-1 1.0001-.9999s.9999.4477.9999 1c0 .2279.239.8536 1.427.8536.3123 0 .6577-.1622.9525-.5127.296-.3518.4744-.8219.4744-1.2678 0-1.399-1.3249-2.7073-3.3685-2.7073-.7595 0-1.7399.2795-2.5138.926-.7414.6193-1.34 1.6117-1.34 3.1716 0 1.5083.676 2.617 1.6699 3.376 1.0195.7787 2.3772 1.185 3.6401 1.185 1.5258 0 3.1104-.4405 4.2911-1.3818 1.1473-.9147 1.9896-2.3595 1.9897-4.5695 0-2.151-1.0103-3.848-2.4961-5.0329C15.9995 4.6454 14.0364 4 12.263 4c-3.6703 0-7.8529 2.3338-8.2255 6.9584-.2234 2.7731.5592 5.166 2.066 6.9128 1.5065 1.7465 3.797 2.917 6.7182 3.1315.5508.0404.9645.5197.924 1.0705s-.5197.9646-1.0705.9241c-3.389-.2489-6.1949-1.6272-8.0861-3.8198-1.8909-2.1921-2.807-5.1285-2.5451-8.3798"/></svg>
